svg/fluentui-system-icons/ic_fluent_table_calculator_20_filled.svg

<svg width="20" height="20" viewBox="0 0 20 20" fill="none" xmlns="http://www.w3.org/2000/svg">
<path d="M13 7H17V5.5C17 4.11929 15.8807 3 14.5 3H13V7ZM7 12V8H3V12H7ZM12 8.49982V8H8V12H11V10.5C11 9.68209 11.3928 8.95592 12 8.49982ZM11 13H8V17H11V13ZM7 13H3V14.5C3 15.8807 4.11929 17 5.5 17H7V13ZM12 7V3H8V7H12ZM7 3V7H3V5.5C3 4.11929 4.11929 3 5.5 3H7ZM12 10.5C12 9.67157 12.6716 9 13.5 9H17.5C18.3284 9 19 9.67157 19 10.5V17.5C19 18.3284 18.3284 19 17.5 19H13.5C12.6716 19 12 18.3284 12 17.5V10.5ZM14.5 13H13.5C13.2239 13 13 13.2239 13 13.5C13 13.7761 13.2239 14 13.5 14H14.5C14.7761 14 15 13.7761 15 13.5C15 13.2239 14.7761 13 14.5 13ZM18 13.5C18 13.2239 17.7761 13 17.5 13H16.5C16.2239 13 16 13.2239 16 13.5C16 13.7761 16.2239 14 16.5 14H17.5C17.7761 14 18 13.7761 18 13.5ZM14.5 15H13.5C13.2239 15 13 15.2239 13 15.5C13 15.7761 13.2239 16 13.5 16H14.5C14.7761 16 15 15.7761 15 15.5C15 15.2239 14.7761 15 14.5 15ZM18 15.5C18 15.2239 17.7761 15 17.5 15H16.5C16.2239 15 16 15.2239 16 15.5C16 15.7761 16.2239 16 16.5 16H17.5C17.7761 16 18 15.7761 18 15.5ZM14.5 17H13.5C13.2239 17 13 17.2239 13 17.5C13 17.7761 13.2239 18 13.5 18H14.5C14.7761 18 15 17.7761 15 17.5C15 17.2239 14.7761 17 14.5 17ZM18 17.5C18 17.2239 17.7761 17 17.5 17H16.5C16.2239 17 16 17.2239 16 17.5C16 17.7761 16.2239 18 16.5 18H17.5C17.7761 18 18 17.7761 18 17.5ZM13.5 10C13.2239 10 13 10.2239 13 10.5V11.5C13 11.7761 13.2239 12 13.5 12H17.5C17.7761 12 18 11.7761 18 11.5V10.5C18 10.2239 17.7761 10 17.5 10H13.5Z" fill="#212121"/>
</svg>

<svg xmlns="http://www.w3.org/2000/svg" width="20" height="20"><path d="M13 7h4V5.5A2.5 2.5 0 0 0 14.5 3H13v4Zm-6 5V8H3v4h4Zm5-3.5V8H8v4h3v-1.5c0-.818.393-1.544 1-2ZM11 13H8v4h3v-4Zm-4 0H3v1.5A2.5 2.5 0 0 0 5.5 17H7v-4Zm5-6V3H8v4h4ZM7 3v4H3V5.5A2.5 2.5 0 0 1 5.5 3H7Zm5 7.5A1.5 1.5 0 0 1 13.5 9h4a1.5 1.5 0 0 1 1.5 1.5v7a1.5 1.5 0 0 1-1.5 1.5h-4a1.5 1.5 0 0 1-1.5-1.5v-7Zm2.5 2.5h-1a.5.5 0 0 0 0 1h1a.5.5 0 0 0 0-1Zm3.5.5a.5.5 0 0 0-.5-.5h-1a.5.5 0 0 0 0 1h1a.5.5 0 0 0 .5-.5ZM14.5 15h-1a.5.5 0 0 0 0 1h1a.5.5 0 0 0 0-1Zm3.5.5a.5.5 0 0 0-.5-.5h-1a.5.5 0 0 0 0 1h1a.5.5 0 0 0 .5-.5ZM14.5 17h-1a.5.5 0 0 0 0 1h1a.5.5 0 0 0 0-1Zm3.5.5a.5.5 0 0 0-.5-.5h-1a.5.5 0 0 0 0 1h1a.5.5 0 0 0 .5-.5ZM13.5 10a.5.5 0 0 0-.5.5v1a.5.5 0 0 0 .5.5h4a.5.5 0 0 0 .5-.5v-1a.5.5 0 0 0-.5-.5h-4Z"/></svg>
